src/img/footer-social/twitter.svg

<svg width="32" height="32" viewBox="0 0 32 32" fill="none" xmlns="http://www.w3.org/2000/svg">
<path d="M29 6.10352e-05H3C1.34315 6.10352e-05 0 1.34321 0 3.00006V29.0001C0 30.6569 1.34315 32.0001 3 32.0001H29C30.6569 32.0001 32 30.6569 32 29.0001V3.00006C32 1.34321 30.6569 6.10352e-05 29 6.10352e-05Z" fill="#50ABF1"/>
<path d="M4.23962 23.7209C6.36929 25.0716 8.89556 25.8532 11.6036 25.8532C19.2115 25.8532 25.3788 19.6853 25.3788 12.0781C25.3788 11.8881 25.3748 11.6996 25.3674 11.5116C25.6426 11.2951 27.3445 9.93099 27.7617 9.05405C27.7617 9.05405 26.3796 9.62842 25.027 9.76373C25.0243 9.76373 25.021 9.76436 25.0183 9.76436C25.0183 9.76436 25.021 9.76303 25.0256 9.75973C25.1503 9.67645 26.8928 8.49028 27.1287 7.07695C27.1287 7.07695 26.1511 7.59874 24.7824 8.05521C24.5558 8.13049 24.3186 8.2045 24.0741 8.2731C23.1918 7.33149 21.9377 6.74377 20.5457 6.74377C17.8755 6.74377 15.7119 8.9068 15.7119 11.5749C15.7119 11.9514 15.7552 12.3179 15.8371 12.6697C15.464 12.6544 9.78183 12.3358 5.91625 7.65463C5.91625 7.65463 3.60598 10.8086 7.293 14.0517C7.293 14.0517 6.17219 14.0071 5.20524 13.4293C5.20524 13.4293 4.85008 17.2503 9.02553 18.2272C9.02553 18.2272 8.20392 18.5384 6.89318 18.3165C6.89318 18.3165 7.62617 21.4038 11.3359 21.6923C11.3359 21.6923 8.40242 24.3423 4.23828 23.7205L4.23962 23.7209Z" fill="white"/>
</svg>

<svg width="32" height="32" fill="none" xmlns="http://www.w3.org/2000/svg"><path d="M29 0H3a3 3 0 00-3 3v26a3 3 0 003 3h26a3 3 0 003-3V3a3 3 0 00-3-3z" fill="#50ABF1"/><path d="M4.24 23.72a13.704 13.704 0 007.364 2.133c7.608 0 13.775-6.168 13.775-13.775 0-.19-.004-.378-.012-.566.276-.217 1.977-1.581 2.395-2.458 0 0-1.382.574-2.735.71h-.009l.008-.004c.124-.084 1.867-1.27 2.103-2.683 0 0-.978.522-2.347.978-.226.075-.463.15-.708.218a4.832 4.832 0 00-8.237 4.397c-.373-.016-6.055-.334-9.92-5.015 0 0-2.311 3.154 1.376 6.397 0 0-1.12-.045-2.088-.623 0 0-.355 3.821 3.82 4.798 0 0-.821.311-2.132.09 0 0 .733 3.087 4.443 3.375 0 0-2.934 2.65-7.098 2.029h.002z" fill="#fff"/></svg>
